dist/img/sprites/logo.svg

<svg width="27" height="41" viewBox="0 0 27 41" fill="none" xmlns="http://www.w3.org/2000/svg">
<path d="M0.626953 7.78906L9.47405 13.3761C12.7959 15.4738 14.8102 19.1282 14.8102 23.0569V27.5909L6.21998 22.4773C2.75191 20.4128 0.626953 16.6749 0.626953 12.6389V7.78906Z" fill="currentColor"/>
<path d="M26.9434 0.609375L18.5092 6.16619C16.2017 7.68652 14.8128 10.2649 14.8128 13.0282V18.0615L23.0491 12.9662C25.47 11.4686 26.9434 8.82461 26.9434 5.97788V0.609375Z" fill="currentColor"/>
<path d="M6.94302 32.1189L6.92578 26.7287L8.30523 27.629C10.023 28.7501 10.1873 30.5047 10.1054 32.7603V33.4472C10.3242 33.3326 9.88661 33.5618 10.1054 33.4472L14.9137 30.9378C16.8947 29.9001 18.1301 27.8876 18.1301 25.6982V23.8297C18.1301 21.74 19.5426 19.7779 21.5785 19.1133V32.1018C21.579 33.5315 18.93 36.5098 16.8188 38.6417C15.5363 39.9367 13.7693 40.6099 11.9467 40.6099H6.92674V38.6764C6.92674 38.5307 6.93221 38.3857 6.94302 38.2418L6.94302 32.1189Z" fill="currentColor"/>
</svg>

<svg width="27" height="41" viewBox="0 0 27 41" fill="none" xmlns="http://www.w3.org/2000/svg"><path d="M.627 7.79l8.847 5.586a11.45 11.45 0 015.336 9.68v4.535l-8.59-5.114A11.45 11.45 0 01.627 12.64V7.79zM26.943.61L18.51 6.165a8.218 8.218 0 00-3.696 6.862v5.033l8.236-5.095a8.217 8.217 0 003.894-6.988V.609z" fill="currentColor"/><path d="M6.943 32.119l-.017-5.39 1.38.9c1.717 1.121 1.881 2.876 1.8 5.131v.687c.218-.114-.22.115 0 0l4.808-2.51c1.98-1.037 3.216-3.05 3.216-5.239V23.83c0-2.09 1.413-4.052 3.448-4.717v12.989c.001 1.43-2.648 4.408-4.76 6.54-1.282 1.295-3.049 1.968-4.871 1.968h-5.02v-1.934c0-.145.005-.29.016-.434v-6.123z" fill="currentColor"/></svg>
